X: 15
T:Foxhunter's Reel, The
M:C|
L:1/8
R:reel
K:G
d2BG dGBG|d2BG AGEG|1)d2BG dGBG|AcBG AGEG:||2)Bd~d2 eBdB|AcBG AGEG:||
|:~D3d BAGE|~D2BG AGEG|~D3d BAGB|cABG AGEG:|
|:gedB ~G2Bd|gedB eA~A2|gedB GABG|ABcd eA~A2:|
|:dggf ~g3d|(3efg dg egdB|dggf ~gabd|(3efg dB AGAB:|
|:G2BG dGBG|GB~B2 AGAB|GB~B2 dGBd|(3efg dB AGAB:|

